X:1
T: The Duchess of Roxburgh's Strathspey
C:William Marshall
R:Strathspey
Q: 128
K:Eb
M:4/4
L:1/16
|:E3e B2G2 C3F EDCB,|E3e BG3 E2b2 g2e2|gbag fede f2F2 F2GA|B2B,2 C2D2 E4 E4|
E3e B2G2 C3F EDCB,|E3e BG3 E2b2 g2e2|gbag fede f2F2 F2GA|B2B,2 C2D2 E4 E4|
egfe defg a2f2 f2a2|g3b a2g2 f2d2 e2B2|AcBA GBAG c2F2 F2GA|B2B,2 C2D2 E4 E4|
egfe defg a2f2 f2a2|gbag fedc BAGF EDCB,|A,2c2 G,2B2 C2F2 F2GA|B2B,2 C2D2 E4 E4:|
